packages/web-icons/svgs/airplane.svg

<svg viewBox="0 0 48 48" xmlns="http://www.w3.org/2000/svg" class="ridi_icon"><path d="M12 30l8.6-8.6L0 6l6-6 25.7 10.3 8.1-8.1C42.1-.1 45.4-.7 47 1c1.6 1.6 1.1 4.9-1.2 7.2l-8.1 8.1L48 42l-6 6-15.4-20.6L18 36v12h-6l-3-9-9-3v-6h12z"/></svg>

<?xml version="1.0" encoding="UTF-8"?>
<svg width="48px" height="48px" viewBox="0 0 48 48" version="1.1" xmlns="http://www.w3.org/2000/svg">
  <!-- Generator: Sketch 41.2 (35397) - http://www.bohemiancoding.com/sketch -->
  <title>airplane</title>
  <desc>Created with Sketch.</desc>
  <defs></defs>
  <g id="Page-1" stroke="none" stroke-width="1" fill="none" fill-rule="evenodd">
    <g id="airplane" fill="#444444">
      <g id="레이어_1">
        <path d="M12,30 L20.6,21.4 L0,6 L6,0 L31.7,10.3 L39.8,2.2 C42.1,-0.1 45.4,-0.7 47,1 C48.6,2.6 48.1,5.9 45.8,8.2 L37.7,16.3 L48,42 L42,48 L26.6,27.4 L18,36 L18,48 L12,48 L9,39 L0,36 L0,30 L12,30 Z" id="Shape"></path>
      </g>
    </g>
  </g>
</svg>
